!!!OTL: Napoleon's Farewell to Paris
!!!ONM: 72.
**kern
*clefG2
*k[b-]
*F:
*M6/8
*MM120
{8c
=1
4f
8f
4f
8g
=2
4a
8a
4a
8a
=3
8a
8a
8a
4g
8f
=4
4.c
4r}
{8c
=5
4f
8a
4cc
8cc
=6
8cc
4dd
4r
8cc
=7
4dd
8cc
4cc
8a
=8
4g
8r
8r}
{8cc
8cc
=9
4dd
8cc
4cc
8a
=10
4a
8a
4a
8a
=11
4a
8a
4f
8d
=12
4.c
4r}
{8c
=13
4f
8f
4f
8g
=14
4a
8a
4a
8g
=15
(4g
8a)
4f
8e
=16
4.f
8r
8r}
==
*-
!!!CNT: Folksongs of Maritime Canada
!!!MRD: 1928///-1932///
!!!OCL: Helen Creighton
!!!YOR: Songs and Ballads from Nova Scotia
!!!PPR: J.M. Dent & Sons, Limited
!!!PPP: Toronto, Canada
!!!PDT: 1932///
!!!reprint: Dover Publications, 1992: ISBN 0-486-21703-5
!!!ENC1: Craig Stuart Sapp (music and bibliographic data)                       
!!!ENC2: Marcus Pearce (phrase markings and key designations)                   
!!!ENC3: Darrell Conklin (phrase markings and key designations)   
!!!END: 2002/04/10/
!!!EEV: 2004/06/05
!!!MPN: Mr. Ben Henneberry
!!!PPG: 148
!!!EFL: 73/152
!!!ARE: Canada; Nova Scotia
!!!verses: 3
!!!VTS: 3157848598
